public/static/img/crypto/TRX.svg

<svg width="32" height="32" viewBox="0 0 32 32" fill="none" xmlns="http://www.w3.org/2000/svg">
<path d="M0 16C0 20.2435 1.68571 24.3131 4.68629 27.3137C7.68687 30.3143 11.7565 32 16 32C20.2435 32 24.3131 30.3143 27.3137 27.3137C30.3143 24.3131 32 20.2435 32 16C32 11.7565 30.3143 7.68687 27.3137 4.68629C24.3131 1.68571 20.2435 0 16 0C11.7565 0 7.68687 1.68571 4.68629 4.68629C1.68571 7.68687 0 11.7565 0 16Z" fill="#D80917"/>
<path d="M14.7218 25.8734C14.6918 25.8734 14.6607 25.8716 14.6307 25.867C14.5095 25.8503 14.3952 25.8007 14.3003 25.7234C14.2055 25.6462 14.1337 25.5443 14.0929 25.429L7.59209 7.0145C7.5095 6.77995 7.5642 6.51895 7.73403 6.33732C7.90387 6.15569 8.16165 6.08275 8.40013 6.15032L21.4965 9.80261C21.5813 9.82621 21.6621 9.86697 21.7311 9.92239L24.1935 11.8781C24.4709 12.098 24.5281 12.4967 24.3236 12.7849L15.266 25.5913C15.2045 25.6785 15.123 25.7496 15.0283 25.7987C14.9336 25.8478 14.8285 25.8734 14.7218 25.8734ZM9.27647 7.77893L14.921 23.77L22.8702 12.5303L21.0081 11.0512L9.27647 7.77893Z" fill="white"/>
<path d="M14.7229 25.8738C14.6982 25.8738 14.6746 25.8724 14.6499 25.8699C14.2842 25.8302 14.0196 25.5013 14.0589 25.1355L15.0393 16.0579C15.0783 15.6907 15.4183 15.4329 15.7737 15.4669C16.1395 15.5066 16.404 15.8355 16.3647 16.2013L15.3843 25.2789C15.3479 25.6203 15.059 25.8738 14.7229 25.8738Z" fill="white"/>
<path d="M15.7022 16.796C15.5331 16.796 15.3636 16.7324 15.2334 16.604C14.9717 16.3448 14.9692 15.9229 15.2281 15.6608L20.8429 9.97628C21.1021 9.71456 21.524 9.71205 21.7857 9.97056C22.0475 10.2298 22.05 10.6517 21.7911 10.9138L16.1759 16.598C16.114 16.6607 16.0403 16.7106 15.9589 16.7446C15.8776 16.7786 15.7903 16.7961 15.7022 16.796Z" fill="white"/>
<path d="M15.7021 16.7956C15.4507 16.7956 15.2097 16.6522 15.0967 16.4084C14.943 16.0744 15.0889 15.6779 15.4221 15.5235L23.499 11.795C23.8351 11.6406 24.2294 11.7864 24.3842 12.1211C24.538 12.455 24.3921 12.8516 24.0589 13.006L15.982 16.7345C15.8942 16.7747 15.7987 16.7955 15.7021 16.7956Z" fill="white"/>
<path d="M15.7982 16.9122C15.603 16.9122 15.4103 16.8267 15.2787 16.6622L7.70059 7.2099C7.46997 6.92279 7.51646 6.50339 7.80428 6.27314C8.09067 6.04395 8.51185 6.09008 8.74104 6.37682L16.3177 15.8292C16.5483 16.1163 16.5026 16.5357 16.2147 16.7659C16.0966 16.8608 15.9497 16.9124 15.7982 16.9122Z" fill="white"/>
</svg>

<svg width="32" height="32" fill="none" xmlns="http://www.w3.org/2000/svg"><path d="M0 16a16 16 0 1 0 32 0 16 16 0 0 0-32 0Z" fill="#D80917"/><path d="M14.722 25.873a.667.667 0 0 1-.629-.444l-6.5-18.415A.667.667 0 0 1 8.4 6.15l13.097 3.653a.658.658 0 0 1 .234.12l2.462 1.955c.278.22.335.619.13.907L15.267 25.59a.666.666 0 0 1-.544.282ZM9.276 7.78l5.645 15.991 7.95-11.24-1.863-1.479L9.276 7.78Z" fill="#fff"/><path d="M14.723 25.874a.667.667 0 0 1-.664-.738l.98-9.078a.676.676 0 0 1 .735-.591c.366.04.63.368.59.734l-.98 9.078a.666.666 0 0 1-.661.595Z" fill="#fff"/><path d="M15.702 16.796a.665.665 0 0 1-.474-1.135l5.615-5.685a.667.667 0 0 1 .948.938l-5.615 5.684a.665.665 0 0 1-.474.198Z" fill="#fff"/><path d="M15.702 16.796a.667.667 0 0 1-.28-1.272l8.077-3.729a.666.666 0 1 1 .56 1.211l-8.077 3.729a.674.674 0 0 1-.28.06Z" fill="#fff"/><path d="M15.798 16.912a.663.663 0 0 1-.52-.25L7.702 7.21a.666.666 0 1 1 1.04-.833l7.577 9.452a.665.665 0 0 1-.52 1.083Z" fill="#fff"/></svg>
